**kern	**kern	**dynam
*part1	*part1	*part1
*staff2	*staff1	*
*I"Piano	*	*
*clefF4	*clefG2	*
*k[f#c#g#d#]	*k[f#c#g#d#]	*
=1	=1	=1
*^	*	*
16r	2AA	(8bbL	.
16ALL	.	.	.
16F#	.	8aaJ)	.
16AJJ	.	.	.
16C#LL	.	4ff#	.
16A	.	.	.
16F#	.	.	.
16AJJ	.	.	.
*v	*v	*	*
=	=	=
16BBLL	(8eeL	>
16G#	.	.
16E	8gg#J)	.
16G#JJ	.	.
16BBLL	(16bbLL	.
16A	16ccc#	.
16D#	16aa	.
16AJJ	16ff#JJ)	.
=	=	=
8E 8G#	8ee	] ff
8EL	8G#L 8B 8e	.
8EEJ	8G#J 8B 8e	.
=||	=||	=||
8r	8r	.
=	=	=
8E	16BLL	p
.	16g#	.
8r	16e	.
.	16g#JJ	.
8E	16c#LL	.
.	16a	.
8r	16e	.
.	16aJJ	.
=	=	=
8E	16BLL	.
.	16g#	.
8r	16e	.
.	16g#JJ	.
8E	16BLL	.
.	16g#	.
8r	16e	.
.	16g#JJ	.
=	=	=
8BB	16BLL	.
.	16f#	.
8r	16d#	.
.	16f#JJ	.
8BB	16BLL	.
.	16f#	.
8r	16d#	.
.	16f#JJ	.
=	=	=
*-	*-	*-
!!!system-decoration: {(s1,s2)}
